X:1
T:Connor O’Reilly of Clounish
T:Connor O’Reilly of Clounish
T:Conchobhar ua Raghallaigh Cluann
T:Carolan
C:Carolan
L:1/8
Q:1/4=120
M:6/8
K:G
V:1 treble 
V:1
"^Brisk and Lively" eAA ABd | ef/e/d dBg | dBB/A/ GAB | BAA A3 :| ga/g/f ged | ef/e/d BAA | %6
 ga/g/f ged | eaa a2 b | ga/b/a ged | ef/e/d BA (f/g/) | aee dcB | BAA A3 || %12

